packages/bezier-icons/icons/basketball.svg

<svg width="24" height="24" viewBox="0 0 24 24" fill="none" xmlns="http://www.w3.org/2000/svg">
<path fill-rule="evenodd" clip-rule="evenodd" d="M12.0005 1.99976C9.37857 1.99976 6.99233 3.00881 5.20892 4.65976C4.76185 5.07363 4.35266 5.52783 3.98713 6.0166C3.94928 6.06721 3.9119 6.1182 3.87499 6.16954C2.69524 7.81084 2.00049 9.82416 2.00049 11.9998C2.00049 14.1755 2.69536 16.189 3.87528 17.8304C4.23968 18.3373 4.65034 18.8087 5.10108 19.2384C5.1369 19.2726 5.17297 19.3065 5.20929 19.3401C6.99266 20.9908 9.37875 21.9998 12.0005 21.9998C17.5233 21.9998 22.0005 17.5226 22.0005 11.9998C22.0005 6.47691 17.5233 1.99976 12.0005 1.99976ZM4.06234 11.0001C4.22193 9.7199 4.68398 8.53366 5.37472 7.51512C6.1875 8.4881 6.74102 9.68513 6.9291 11.0001H4.06234ZM6.70839 6.00015C7.92449 7.35892 8.73384 9.08935 8.94506 11.0001H11V4.06171C9.36498 4.2657 7.88321 4.96308 6.70839 6.00015ZM4.06242 13.0001H6.9291C6.74103 14.3149 6.1876 15.5118 5.37495 16.4847C4.68419 15.4663 4.22209 14.2801 4.06242 13.0001ZM8.94506 13.0001C8.73386 14.9106 7.92462 16.6409 6.70869 17.9996C7.88346 19.0365 9.36511 19.7338 11 19.9378V13.0001H8.94506ZM13 4.06159V11.0001H15.0549C15.2662 9.08912 16.0757 7.3585 17.292 5.99966C16.1171 4.96265 14.6351 4.26538 13 4.06159ZM18.6258 7.51446C17.8127 8.48756 17.259 9.68484 17.0709 11.0001H19.9386C19.779 9.71962 19.3168 8.53315 18.6258 7.51446ZM15.0549 13.0001H13V19.9379C14.635 19.7341 16.1168 19.037 17.2917 18.0001C16.0756 16.6413 15.2661 14.9108 15.0549 13.0001ZM18.6256 16.4854C17.8126 15.5123 17.259 14.3152 17.0709 13.0001H19.9386C19.7789 14.2804 19.3166 15.4668 18.6256 16.4854Z" fill="#313234"/>
</svg>

<svg xmlns="http://www.w3.org/2000/svg" width="24" height="24" fill="none" viewBox="0 0 24 24"><path fill="#313234" fill-rule="evenodd" d="M12 2A9.97 9.97 0 0 0 5.21 4.66a10 10 0 0 0-1.334 1.51A9.96 9.96 0 0 0 2 12c0 2.175.695 4.189 1.875 5.83a10 10 0 0 0 1.334 1.51A9.97 9.97 0 0 0 12.001 22c5.522 0 10-4.477 10-10S17.523 2 12 2m-7.938 9a7.95 7.95 0 0 1 1.313-3.485A6.97 6.97 0 0 1 6.929 11zm2.646-5a8.97 8.97 0 0 1 2.237 5H11V4.062A7.97 7.97 0 0 0 6.708 6m-2.646 7H6.93a6.97 6.97 0 0 1-1.554 3.485A7.95 7.95 0 0 1 4.062 13m4.883 0a8.97 8.97 0 0 1-2.236 5A7.97 7.97 0 0 0 11 19.938V13zM13 4.062V11h2.055a8.97 8.97 0 0 1 2.237-5A7.97 7.97 0 0 0 13 4.062m5.626 3.452A6.97 6.97 0 0 0 17.07 11h2.868a7.95 7.95 0 0 0-1.313-3.486M15.055 13H13v6.938A7.97 7.97 0 0 0 17.292 18a8.97 8.97 0 0 1-2.237-5m3.57 3.485A6.97 6.97 0 0 1 17.072 13h2.868a7.95 7.95 0 0 1-1.313 3.485" clip-rule="evenodd"/></svg>
